X:1
T:The Piano Tuner's Nightmare
T:The Piano Tuner's Nightmare
T:An Irritatingly Off-Tune Rag
T:Terwiliger "Thumbs" Malone transcribed by Austin Kitchell 
C:Terwiliger "Thumbs" Malone edited by "Perfessor" Bill Edwards and Austin Kitchell
%%score { 1 | 2 }
L:1/8
Q:1/4=112
M:2/4
K:C
V:1 treble nm="Piano" snm="Pno."
V:2 bass 
V:1
!f!"^Annoyingly!" [EGc]/B/c/[E^Gd]/- [EGd]/^c/.d | [G^ce]/^d/e/[^CGA]/- [CGA]/^G/.A | %2
 [^FAe]/^d/e/[CFA]/- [CFA]/^G/.[CA]/.[^C^A]/ | [DFGB] z"^(wince)"{/de^f} !>![Bg] z |: %4
!f! [EGc]/B/c/[FGBd]/- [FGBd]/^c/.[FGBd] | [Gce]/^d/[Gce]/[^CEG]/- [CEG]/[^D^F]/.[CEG] | %6
 [^FAe]/d/^c/[=FBd]/- [FBd]/e/.[FBd] | [CEGc] z"^(wince)"{/def} !>![xg] z | %8
 [EGc]/B/c/[DE^Gd]/- [DEGd]/^c/.[DEGd] | [G=ce]/^d/[Gce]/[^CEG]/- [CEG]/[^D^F]/.[CEG] | %10
 [^FAe]/d/^c/[FAd]/- [FAd]/^G/.A/.^A/ | [DFGB] z"^(wince)"{/def} !>![xg] z | c/c/B/c/ _B/c/G/^G/ | %13
 A/-!>![FAd]A/- !>![FAd] z | _B/-!>![GBe]B/- !>![GBe] z | c/-!>![Acf]c/- !>![Acf] z | %16
 d/d/^c/d/ =c/d/A/^A/ | B/-!>![GBe]B/- !>![GBe] z | c/-!>![Ac^f]c/- !>![Acf] z | %19
 G/"^(wince)"!>![xg]G/"^(wince)" !>![xg] z :| G/!>![xg]G/!>![xg][xg]/^f/ || %21
"^This is getting ridiculous!"!f! =f/[xg]/e/[xg]/ d/[xg]/B/[xg]/ | A/[xg]/G/[xg]/ A/[xg]/B/[xg]/ | %23
 e/[ca]e/ [ca]e'/[c'a']/- | [c'a']/e'/[c'a'] [ca]/[xg]/e/c/ | d/[Bfa]d/ [Bfa]d'/[bf'a']/- | %26
 [bf'a']/d'/[bf'a'] [Bda]/f/d/B/ | c/!>![^fac']c/ !>![fac']c/!>![xgac']/- | %28
[xgac']/c/!>![xgac'] G/!>![eg]^f/ | =f/[xg]/e/[xg]/ d/[xg]/B/[xg]/ | %30
 A/[xg]/G/[xg]/ A/[xg]/B/[xg]/ | e/[ca]e/ [ca]e'/[c'a']/- | [c'a']/e'/[c'a'] [ca]/[xg]/e/c/ | %33
 [xg]/-!>![Begb][xg]/- !>![Begb]^f/-!>![B^dfa]/- | [Bdfa]/^f/-!>![B^dfa] e/-!>![GBeg]e/- | %35
 !>![GBeg]e/-!>![G^ceg]/- [Gceg]/e/-!>![Gceg] | d/-!>![Gdg]d/- !>![Gdg][xg]/^f/ || %37
"^What's wrong with this darn G?!" =f/[xg]/e/[xg]/ d/[xg]/B/[xg]/ | A/[xg]/G/[xg]/ A/[xg]/B/[xg]/ | %39
 e/[ca]e/ [ca]e'/[c'a']/- | [c'a']/e'/[c'a'] [ca]/[xg]/e/c/ | d/[Bfa]d/ [Bfa]d'/[bf'a']/- | %42
 [bf'a']/d'/[bf'a'] [Bda]/f/d/B/ | c/!>![^fac']c/ !>![fac']c/!>![xgac']/- | %44
[xgac']/c/!>![xgac'] cc'/b/ | _b/c'/a/c'/[xg]/c'/e/c'/ | d/c'/c/c'/ d/c'/e/c'/ | %47
 d/-!>![cdfa]d/- !>![cdfa]f/-!>![dfac']/- | [dfac']/f/!>![cgac'] z/ c'/_b/a/ | %49
 [c_a]/[xg]/a/c/- c/d/_e/=f/ |[xg]/^f/[xg]/A/- A/B/c/d/ | [^Fe]/d/e/=F/- F/G/A/B/ | %52
 [CEGc] z{/def} !>![xg] z ||!f! [EGc]/B/c/[FGBd]/- [FGBd]/^c/.[FGBd] | %54
 [Gce]/^d/[Gce]/[^CEG]/- [CEG]/[^D^F]/.[CEG] | [^FAe]/d/^c/[=FBd]/- [FBd]/e/.[FBd] | %56
 [CEGc] z"^Ouch! That hurt my ears!"{/def} !>![xg] z | [EGc]/B/c/[DE^Gd]/- [DEGd]/^c/.[DEGd] | %58
 [G=ce]/^d/[Gce]/[^CEG]/- [CEG]/[^D^F]/.[CEG] | [^FAe]/d/^c/[FAd]/- [FAd]/^G/.A/.^A/ | %60
 [DGB] z"^Stupid G!"{/def} !>![xg] z | c/c/B/c/ _B/c/G/^G/ | A/-!>![FAd]A/- !>![FAd] z | %63
 d/d/^c/d/ =c/d/A/^A/ | B/-!>![Bdg]B/- !>![Bdg] z | c'/c'/b/c'/ _b/[xg]/e/c/ | %66
 d/-!>![dfac']_e/- !>![e^fac'] z |[xg]/[c'e'g']/[xg]/[^fc'e']/- [fc'e']/c'/.[=fbd'] | %68
 [cegc'] z!8va(! !>![c'e'g'c'']!8va)! z || c/B/c/d/- d/^c/.d | B/^A/B/G/- G/^d/e/f/ | %71
 ^f/d/c/A/ z2 | z"^OH NO!" .[DAd] .[E^ce].[^Fd^f] |: %73
[K:G][Q:1/4=112]"^Trio"!f![xg]/.[xg]/[ce]/[xg]/ [Bd]/[xg]/[Ac]/[xg]/ | [GB]/[xg]f/[xg]/d/.e/.f/ | %75
[xg]/f/.[xg]/[G_Be]/- [GBe]/^d/.e/.^e/ | [Ac^f]2 z/ f/[xg]/^g/ | a/.a/[df]/a/ [^ce]/a/[=c_e]/a/ | %78
 d/[fa][^e^g]/ [fa]/f/.[x=g]/.^g/ | a/^g/.a/[fad']/- [fad']/g/.a/.^a/ | [dgb]2 z/ d/e/f/ | %81
 [dg]/.[xg]/[ce]/[xg]/ [Bd]/[xg]/[Ac]/[xg]/ | [GB]/[xg]f/[xg]/d/.e/.f/ |1 %83
[xg]/f/.[xg]/[G_Be]/- [GBe]/^d/.e/.^e/ | [d^f]2 z/ a/[e^c']/.b/ | %85
 [^ca]/f/.[xg]/[Ac]/- [Ac]/.a/^g/.b/ | [da]/^e/.f/[B^d]/- [Bd]/.a/[=e^c']/.^g/ | %87
 [^ca]/.f/[Bg]/.e/ [Af]/.d/[Ge]/.c/ | .[Fd].[FAd] .[G^ce].[Adf] :|2 %89
 [dg]/f/.[xg]/[d=fa]/- [dfa]/[xg]/.d/.^d/ | [ce]2 z/ ^d/e/f/ || %91
[xg]/.[xg]/f/[xg]/ [^ce]/[xg]/[^A^d]/[xg]/ | .[B!courtesy!=d]/fd/ [^GBe]/^d/e/f/ | %93
[xg]/[G^ce]/[xg]/[G=ce]/- [Gce]/f/.[Acd] | [Bdg] z !>![bd'g']/!<(! (e/.=f/).^f/!<)! || %95
[K:C]"^(screams in frustration)"!ff![xg]/[=fg][d=fg][B=fg][G=fg]/- | %96
 [Gfg]/[A=fg][B=fg]/ z/ (e/.=f/).^f/ |[xg]/[eg][ceg][Aeg][Geg]/- | %98
 [Geg]/[Beg][ceg]/ z/ (e/.=f/).^f/ |[xg].[d=fgb] [d=fgb].[d=fgb] | [dfgb].[d=fgb] [d=fgb].[d=fgb] | %101
 a/^f/_e/c/- c/e/f/a/ |[xg]/a/^f/a/ [xg]/ (e/.=f/).^f/ |[xg]/[=fg][d=fg][B=fg][G=fg]/- | %104
 [Gfg]/[A=fg][B=fg]/ z/ (e/.=f/).^f/ |[xg]/[eg][ceg][Aeg][Geg]/- | %106
 [Geg]/[Beg][ceg]/ z/ (e/.=f/).^f/ |[xg].[Begb] [Begb].[Begb] | [B^dgb].[Bdgb] [Bdgb].[Bdgb] | %109
 [Begb] z [^Aeg] z | [Bdg]2 z/ (e/.=f/).^f/ ||[xg]/[=fg][d=fg][B=fg][G=fg]/- | %112
 [Gfg]/[A=fg][B=fg]/ z/ (e/.=f/).^f/ |[xg]/[eg][ceg][Aeg][Geg]/- | %114
 [Geg]/[Beg][ceg]/ z/ (e/.=f/).^f/ |[xg]/.[Bgb][A=fa].[Geg][Fd=f]/- | %116
 [Fdf]/.[DBd][B,GB].[A,FA][G,EG]/ | [^F,_E^F]/C/E/F/ A/c/_e/^f/ |[xg]/a/^f/a/ [xg]/ (e/.=f/).^f/ | %119
[xg]/[=fg][d=fg][B=fg][G=fg]/- | [Gfg]/[A=fg][B=fg]/ z/ (e/.=f/).^f/ |[xg]/[eg][ceg][Aeg][Geg]/ | %122
"^I've had enough of this! I'm fixing this right now!!" .[xg] z z2 | [xg]4- | [xg]4 | [xg]4- | %126
 [xg]4 | [xg]4- | [xg]4 |"^Getting closer..." [xg]4- | [xg]4 | [xg]4- | [xg]4 | [xg]4- | %134
"^Almost there..." [xg]4 | [xg]4- | [xg]4 | [xg]4- | [xg]4 |"^There we go! Fixed! FINALLY!!" g4- | %140
 g4 | G/-[Gc]/-[Gce]/-[Gceg]/- [Gceg]2- | [Gceg]3 g |[Q:1/4=96]"^meno mosso" .[ceg] z .[ceg] z | %144
 !arpeggio!.[CGec'] z z2 | z2 z/[Q:1/4=112]"^A tempo" (f/._g/).=g/ || %146
[K:Db] a/.[Acega][Acega].[Acega][Adfa]/- | [Adfa]/.[A_cfa][__Bdg__b]/ z/ (d/.e/).=e/ | %148
 [Adf]/a/.f/[FAd]/- [FAd]/.f/[Gce] |"^(Where'd the G go?)" [FAd] z [dfad'] z |] %150
V:2
 C>B,- B,2 | [A,^C]>[E,G,A,]- [E,G,A,]2 | [D,^F,A,]>[D,F,A,]- [D,F,A,]2 | %3
 [D,F,G,B,] z !>![G,,,G,,] z |: %4
 !tenuto!.[C,,C,]!tenuto!.[E,G,C] !tenuto!.[G,,,G,,]!tenuto!.[F,G,B,] | %5
 !tenuto!.[C,,C,]!tenuto!.[E,G,C] !tenuto!.[A,,,A,,]!tenuto!.[E,G,A,] | %6
 !tenuto!.[D,,D,]!tenuto!.[^F,A,^C] !tenuto!.[G,,,G,,]!tenuto!.[D,=F,G,B,] | [C,,C,] z z2 | %8
 !tenuto!.[C,,C,]!tenuto!.[E,G,C] !tenuto!.[E,,E,]!tenuto!.[D,^G,B,] | %9
 !tenuto!.[A,,,A,,]!tenuto!.[G,A,^C] !tenuto!.[E,,E,]!tenuto!.[_E,,_E,] | %10
 !tenuto!.[D,,D,]!tenuto!.[^F,A,C] !tenuto!.[A,,,A,,]!tenuto!.[F,A,C] | [G,,,G,,] z z2 | %12
 !tenuto!.C,!tenuto!.[E,G,C] !tenuto!.C,,!tenuto!.[E,G,_B,C] | %13
 !tenuto!.F,,!tenuto!.[F,A,C] !tenuto!.C,,!tenuto!.[F,A,C] | %14
 !tenuto!.G,,!tenuto!.[E,G,_B,C] !tenuto!.C,,!tenuto!.[E,G,B,C] | %15
 !tenuto!.F,,!tenuto!.[F,A,C] !tenuto!.C,,!tenuto!.[F,A,C] | %16
 !tenuto!.A,,!tenuto!.[^F,A,C] !tenuto!.D,,!tenuto!.[F,A,C] | %17
 !tenuto!.G,,!tenuto!.[D,G,B,] !tenuto!.D,,!tenuto!.[D,G,B,] | %18
 !tenuto!.A,,!tenuto!.[^F,A,C] !tenuto!.D,,!tenuto!.[F,A,C] | %19
 !tenuto!.[G,,,G,,]!tenuto!.[D,F,G,B,] !tenuto!.D,,!tenuto!.[D,F,G,B,] :| !>![G,,,G,,] z z2 || %21
 !tenuto!.[D,,D,]!tenuto!.[G,DF] !tenuto!.[G,,,G,,]!tenuto!.[G,DF] | %22
 !tenuto!.[D,,D,]!tenuto!.[G,DF] !tenuto!.[G,,,G,,]!tenuto!.[G,DF] | %23
 !tenuto!.[C,,C,]!tenuto!.[G,CE] !tenuto!.[G,,,G,,]!tenuto!.[G,CE] | %24
 !tenuto!.[E,,E,]!tenuto!.[G,CE] !tenuto!.[E,,E,]!tenuto!.[_E,,_E,] | %25
 !tenuto!.[D,,D,]!tenuto!.[G,DF] !tenuto!.[G,,,G,,]!tenuto!.[G,DF] | %26
 !tenuto!.[D,,D,]!tenuto!.[G,DF] !tenuto!.[G,,,G,,]!tenuto!.[G,DF] | %27
 !tenuto!.[^F,,^F,]!tenuto!.[F,C_E] !tenuto!.[F,CE]!tenuto!.[G,,G,] | %28
 !tenuto!.[G,CE]!tenuto!.[G,CE] !tenuto!.[E,,E,]!tenuto!.[_E,,_E,] | %29
 !tenuto!.[D,,D,]!tenuto!.[G,DF] !tenuto!.[G,,,G,,]!tenuto!.[G,DF] | %30
 !tenuto!.[D,,D,]!tenuto!.[G,DF] !tenuto!.[G,,,G,,]!tenuto!.[G,DF] | %31
 !tenuto!.[C,,C,]!tenuto!.[G,CE] !tenuto!.[G,,,G,,]!tenuto!.[G,CE] | %32
 !tenuto!.[C,,C,]!tenuto!.[G,CE] !tenuto!.[E,,E,]!tenuto!.[G,CE] | [B,,,B,,] [G,B,EG]2 [B,,,B,,] | %34
 [A,B,^D^F]2 [E,,E,][G,B,E]- | [G,B,E][^C,,^C,] [G,^CE]2 | [D,,D,] [B,D]2 [^C,,^C,] || %37
 !tenuto!.[D,,D,]!tenuto!.[G,DF] !tenuto!.[G,,,G,,]!tenuto!.[G,DF] | %38
 !tenuto!.[D,,D,]!tenuto!.[G,DF] !tenuto!.[G,,,G,,]!tenuto!.[G,DF] | %39
 !tenuto!.[C,,C,]!tenuto!.[G,CE] !tenuto!.[G,,,G,,]!tenuto!.[G,CE] | %40
 !tenuto!.[E,,E,]!tenuto!.[G,CE] !tenuto!.[E,,E,]!tenuto!.[_E,,_E,] | %41
 !tenuto!.[D,,D,]!tenuto!.[G,DF] !tenuto!.[G,,,G,,]!tenuto!.[G,DF] | %42
 !tenuto!.[D,,D,]!tenuto!.[G,DF] !tenuto!.[G,,,G,,]!tenuto!.[G,DF] | %43
 !tenuto!.[^F,,^F,]!tenuto!.[F,C_E] !tenuto!.[F,CE]!tenuto!.[G,,G,] | %44
 !tenuto!.[G,CE]!tenuto!.[G,CE] !tenuto!.[C,,C,]!tenuto!.[^F,,^F,] | %45
 !tenuto!.[G,,G,]!tenuto!.[G,_B,E] !tenuto!.[C,,C,]!tenuto!.[G,B,E] | %46
 !tenuto!.[G,,G,]!tenuto!.[G,_B,E] !tenuto!.[C,,C,]!tenuto!.[G,B,E] | %47
 !tenuto!.[F,,F,]!tenuto!.[A,CF] !tenuto!.[C,,C,]!tenuto!.[A,CF] | %48
 !tenuto!.[A,,,A,,]!tenuto!.[A,CF] !tenuto!.[F,,,F,,]!tenuto!.[A,CF] | %49
 !tenuto!.[_A,,,_A,,]!tenuto!.[_A,C_E] !tenuto!.[_E,,_E,]!tenuto!.[A,CE] | %50
 !tenuto!.[C,,C,]!tenuto!.[G,C!courtesy!=E] !tenuto!.[A,,,A,,]!tenuto!.[A,^CE] | %51
 !tenuto!.[D,,D,]!tenuto!.[^F,CD] !tenuto!.[G,,,G,,]!tenuto!.[D,=F,G,B,] | [C,,C,] z z2 || %53
 !tenuto!.[C,,C,]!tenuto!.[E,G,C] !tenuto!.[G,,,G,,]!tenuto!.[F,G,B,] | %54
 !tenuto!.[C,,C,]!tenuto!.[E,G,C] !tenuto!.[A,,,A,,]!tenuto!.[E,G,A,] | %55
 !tenuto!.[D,,D,]!tenuto!.[^F,A,^C] !tenuto!.[G,,,G,,]!tenuto!.[D,=F,G,B,] | [C,,C,] z z2 | %57
 !tenuto!.[C,,C,]!tenuto!.[E,G,C] !tenuto!.[E,,,E,,]!tenuto!.[D,^G,B,] | %58
 !tenuto!.[A,,,A,,]!tenuto!.[G,A,^C] !tenuto!.[E,,E,]!tenuto!.[_E,,_E,] | %59
 !tenuto!.[D,,D,]!tenuto!.[^F,A,C] !tenuto!.[A,,,A,,]!tenuto!.[F,A,C] | [G,,,G,,] z z2 | %61
 !tenuto!.C,!tenuto!.[E,G,C] !tenuto!.[C,,C,]!tenuto!.[E,G,_B,C] | %62
 !tenuto!.[F,,F,]!tenuto!.[F,A,C] !tenuto!.[C,,C,]!tenuto!.[F,A,C] | %63
 !tenuto!.[D,,D,]!tenuto!.[^F,A,D] !tenuto!.[A,,,A,,]!tenuto!.[F,A,CD] | %64
 !tenuto!.[G,,,G,,]!tenuto!.[D,F,G,B,] !tenuto!.[G,,,G,,]!tenuto!.[D,F,G,B,] | %65
 !tenuto!.[C,,C,]!tenuto!.[G,_B,E] !tenuto!.[G,,G,]!tenuto!.[G,B,E] | %66
 !tenuto!.[F,,F,]!tenuto!.[F,A,C] !tenuto!.[^F,,^F,]!tenuto!.[F,C_E] | %67
 !tenuto!.[G,,G,]!tenuto!.[G,CE] !tenuto!.[A,,A,]!tenuto!.[B,,B,] | %68
 !tenuto!.[C,C]!tenuto!.[G,,G,] !>![C,,C,] z || C/B,/C/D/- D/^C/.D | [B,D]>[_B,^CE]- [B,CE]2 | %71
 [A,!courtesy!=CD]2 ^F/D/C/A,/ | .^F,.[D,D] .[^C,^C].[=C,=C] |: %73
[K:G] !tenuto!.[B,,B,]!tenuto!.[C,C] !tenuto!.[B,,B,]!tenuto!.[A,,A,] | %74
 !tenuto!.[G,,G,]!tenuto!.[G,B,D] !tenuto!.[D,,D,]!tenuto!.[G,B,D] | %75
 !tenuto!.[B,,B,]!tenuto!.[G,B,D] !tenuto!.[_B,,_B,]!tenuto!.[G,B,^C] | %76
 !tenuto!.[A,,A,]!tenuto!.[F,!courtesy!=CD] !tenuto!.[F,CD]!tenuto!.[D,,D,] | %77
 !tenuto!.[A,,A,]!tenuto!.[D,,D,] !tenuto!.[E,,E,]!tenuto!.[^E,,^E,] | %78
 !tenuto!.[F,,F,]!tenuto!.[F,A,D] !tenuto!.[D,,D,]!tenuto!.[F,A,D] | %79
 !tenuto!.[D,,D,]!tenuto!.[F,A,D] !tenuto!.[E,,E,]!tenuto!.[F,,F,] | %80
 !tenuto!.[G,,G,]!tenuto!.[G,B,D] !tenuto!.[G,B,D]!tenuto!.[D,,D,] | %81
 !tenuto!.[G,,G,]!tenuto!.[C,C] !tenuto!.[B,,B,]!tenuto!.[A,,A,] | %82
 !tenuto!.[G,,G,]!tenuto!.[G,B,D] !tenuto!.[D,,D,]!tenuto!.[G,B,D] |1 %83
 !tenuto!.[B,,B,]!tenuto!.[G,B,D] !tenuto!.[_B,,_B,]!tenuto!.[G,B,^C] | %84
 !tenuto!.[A,,A,]!tenuto!.[F,A,D] !tenuto!.[F,A,D]!tenuto!.[^G,,^G,] | %85
 !tenuto!.[!courtesy!=G,,!courtesy!=G,]!tenuto!.[G,A,^C] !tenuto!.[E,,E,]!tenuto!.[^E,,^E,] | %86
 !tenuto!.[F,,F,]!tenuto!.[F,A,D] !tenuto!.[B,,B,]!tenuto!.[E,,E,] | %87
 !tenuto!.[A,,A,]!tenuto!.[B,,B,] !tenuto!.[C,C]!tenuto!.[^C,^C] | .[D,D].[D,D] .[^C,^C].[D,D] :|2 %89
 !tenuto!.[G,,G,]!tenuto!.[G,B,=F] !tenuto!.[B,,B,]!tenuto!.[G,B,F] | %90
 !tenuto!.[C,C]!tenuto!.[G,CE] !tenuto!.[G,CE] z || %91
 !tenuto!.[G,G]!tenuto!.[E,E] !tenuto!.[^C,^C]!tenuto!.[^A,,^A,] | %92
 !tenuto!.[B,,B,]!tenuto!.[G,B,D] !tenuto!.[E,,E,]!tenuto!.[E,^G,D] | %93
 !tenuto!.[A,,A,]!tenuto!.[E,A,^C] !tenuto!.[D,,D,]!tenuto!.[F,A,D] | %94
 !tenuto!.[G,,G,]!tenuto!.[D,,D,] !>![G,,,G,,] z ||[K:C] .[G,G].[F,F] .[D,D].[B,,B,] | %96
 .[G,,G,].[A,,A,] [B,,B,]/ z/ z | .[G,G].[E,E] .[C,C].[A,,A,] | .[G,,G,].[B,,B,] [C,C]/ z/ z | %99
 [G,G]/.[B,B][A,A].[G,G][F,F]/- | [F,F]/.[D,D][B,,B,].[A,,A,][G,,G,]/ | %101
 C,/_E,/^F,/A,/- A,/C/_E/^F/ | .[CEG].[C_EA] .[C=EG] z | .[G,G].[F,F] .[D,D].[B,,B,] | %104
 .[G,,G,].[A,,A,] [B,,B,]/ z/ z | .[G,G].[E,E] .[C,C].[A,,A,] | .[G,,G,].[B,,B,] [C,C]/ z/ z | %107
 [G,G]/.[B,B][A,A].[G,G][F,F]/- | [F,F]/.[^D,^D][C,C].[B,,B,].[A,,A,]/ | [G,,G,] z [^C,^C] z | %110
 ([D,D]/.[E,E]/).[F,F]/.[E,E]/ ([D,D]/.[C,C]/).[B,,B,]/.[A,,A,]/ || %111
 [G,,G,]!tenuto!.[G,B,D] [D,,D,]!tenuto!.[G,B,D] | [G,,G,][A,,A,] [B,,B,]!tenuto!.[G,B,D] | %113
 [C,,G,,E,]!tenuto!.[G,CE] [G,,G,]!tenuto!.[G,CE] | %114
 [C,,G,,E,]!tenuto!.[G,CE] [G,,G,]!tenuto!.[G,CE] | %115
 [D,,D,]!tenuto!.[D,G,B,] [G,,G,]!tenuto!.[D,G,B,] | [D,,D,]!tenuto!.[D,G,] [G,,G,]!tenuto!.D, | %117
 A,,/_E,/^F,/A,/ C/_E/^F/A/ | .[CEG].[C_EA] .[C=EG] z | %119
 [G,,G,]!tenuto!.[G,B,D] [D,,D,]!tenuto!.[G,B,D] | [G,,G,][A,,A,] [B,,B,]!tenuto!.[G,B,D] | %121
 [C,,G,,E,]!tenuto!.[G,CE] [G,,G,]!tenuto!.[G,CE] | z4 | z4 | z4 | z4 | z4 | z4 | z4 | z4 | z4 | %131
 z4 | z4 | z4 | z4 | z4 | z4 | z4 | z4 | z4 | z4 | z4 | z4 | z4 | z4 | z4 || %146
[K:Db] [E,,E,].[A,CG] [A,,A,].[A,CG] | .[D,D].[_C,_C] [__B,,__B,].[B,DG] | %148
 [A,,A,].[A,DF] .[B,,B,].[C,C] | .[D,D].[A,,A,] [D,,D,] z |] %150

